svg/color/araw.svg

<?xml version="1.0" encoding="UTF-8" ?>
<!DOCTYPE svg PUBLIC "-//W3C//DTD SVG 1.1//EN" "http://www.w3.org/Graphics/SVG/1.1/DTD/svg11.dtd">
<svg width="250pt" height="250pt" viewBox="0 0 250 250" version="1.1" xmlns="http://www.w3.org/2000/svg">
<g id="#fefffeff">
<path fill="#fefffe" opacity="1.00" d=" M 0.00 0.00 L 250.00 0.00 L 250.00 119.56 C 248.82 97.45 242.01 75.63 229.87 57.08 C 214.95 34.55 192.90 16.36 167.17 7.67 C 143.63 -0.96 117.44 -2.01 93.21 4.37 C 53.98 14.43 20.63 44.89 7.35 83.19 C 2.96 94.83 0.96 107.20 0.00 119.56 L 0.00 0.00 Z" />
<path fill="#fefffe" opacity="1.00" d=" M 26.52 178.54 C 58.55 122.66 90.56 66.78 122.65 10.94 C 123.01 30.62 122.66 50.31 122.82 70.00 C 122.74 73.47 123.22 77.22 121.33 80.33 C 103.42 112.45 85.72 144.69 67.81 176.81 C 65.87 180.17 64.48 183.93 61.87 186.86 C 58.38 189.34 54.15 190.47 50.35 192.38 C 43.03 195.94 35.75 199.71 29.08 204.42 C 30.18 206.41 31.56 208.23 33.17 209.85 C 44.09 221.20 56.65 231.28 71.06 237.82 C 86.13 245.20 102.79 249.28 119.54 250.00 L 0.00 250.00 L 0.00 131.42 C 1.77 152.37 7.75 173.21 19.11 191.02 C 21.87 187.04 24.05 182.70 26.52 178.54 Z" />
<path fill="#fefffe" opacity="1.00" d=" M 130.91 11.76 C 133.98 15.34 136.02 19.61 138.33 23.69 C 169.68 78.76 201.10 133.80 232.53 188.82 C 243.22 171.98 248.41 152.19 250.00 132.44 L 250.00 250.00 L 135.38 250.00 C 145.53 248.46 155.78 246.95 165.48 243.45 C 178.02 238.96 190.11 232.84 200.70 224.72 C 208.55 218.22 216.54 211.52 222.33 203.05 C 213.50 196.58 203.36 192.21 193.46 187.68 C 190.27 186.42 189.11 182.97 187.55 180.23 C 169.29 147.15 150.91 114.13 132.74 81.01 C 129.48 75.91 130.84 69.69 130.61 64.00 C 130.80 46.59 130.22 29.16 130.91 11.76 Z" />
<path fill="#fefffe" opacity="1.00" d=" M 127.17 119.08 C 135.68 133.58 143.66 148.39 152.00 163.00 C 154.57 168.02 157.77 172.71 160.05 177.89 C 152.99 177.37 146.02 175.87 138.93 175.55 C 131.27 175.24 123.60 175.25 115.94 175.52 C 108.67 175.72 101.54 177.33 94.31 177.86 C 105.52 158.42 115.87 138.48 127.17 119.08 Z" />
</g>
<g id="#018fd5ff">
<path fill="#018fd5" opacity="1.00" d=" M 93.21 4.37 C 117.44 -2.01 143.63 -0.96 167.17 7.67 C 192.90 16.36 214.95 34.55 229.87 57.08 C 242.01 75.63 248.82 97.45 250.00 119.56 L 250.00 132.44 C 248.41 152.19 243.22 171.98 232.53 188.82 C 201.10 133.80 169.68 78.76 138.33 23.69 C 136.02 19.61 133.98 15.34 130.91 11.76 C 130.22 29.16 130.80 46.59 130.61 64.00 C 130.84 69.69 129.48 75.91 132.74 81.01 C 150.91 114.13 169.29 147.15 187.55 180.23 C 189.11 182.97 190.27 186.42 193.46 187.68 C 203.36 192.21 213.50 196.58 222.33 203.05 C 216.54 211.52 208.55 218.22 200.70 224.72 C 190.11 232.84 178.02 238.96 165.48 243.45 C 155.78 246.95 145.53 248.46 135.38 250.00 L 119.54 250.00 C 102.79 249.28 86.13 245.20 71.06 237.82 C 56.65 231.28 44.09 221.20 33.17 209.85 C 31.56 208.23 30.18 206.41 29.08 204.42 C 35.75 199.71 43.03 195.94 50.35 192.38 C 54.15 190.47 58.38 189.34 61.87 186.86 C 64.48 183.93 65.87 180.17 67.81 176.81 C 85.72 144.69 103.42 112.45 121.33 80.33 C 123.22 77.22 122.74 73.47 122.82 70.00 C 122.66 50.31 123.01 30.62 122.65 10.94 C 90.56 66.78 58.55 122.66 26.52 178.54 C 24.05 182.70 21.87 187.04 19.11 191.02 C 7.75 173.21 1.77 152.37 0.00 131.42 L 0.00 119.56 C 0.96 107.20 2.96 94.83 7.35 83.19 C 20.63 44.89 53.98 14.43 93.21 4.37 M 127.17 119.08 C 115.87 138.48 105.52 158.42 94.31 177.86 C 101.54 177.33 108.67 175.72 115.94 175.52 C 123.60 175.25 131.27 175.24 138.93 175.55 C 146.02 175.87 152.99 177.37 160.05 177.89 C 157.77 172.71 154.57 168.02 152.00 163.00 C 143.66 148.39 135.68 133.58 127.17 119.08 Z" />
</g>
</svg>

<?xml version="1.0" encoding="utf-8"?>
<!-- Generator: Adobe Illustrator 26.0.3, SVG Export Plug-In . SVG Version: 6.00 Build 0)  -->
<svg version="1.1" id="Layer_1" xmlns="http://www.w3.org/2000/svg" xmlns:xlink="http://www.w3.org/1999/xlink" x="0px" y="0px"
	 viewBox="0 0 250 250" style="enable-background:new 0 0 250 250;" xml:space="preserve">
<style type="text/css">
	.st0{fill:#FEFFFE;}
	.st1{fill:#018FD5;}
</style>
<g id="_x23_fefffeff">
	<path class="st0" d="M127.2,119.1c8.5,14.5,16.5,29.3,24.8,43.9c2.6,5,5.8,9.7,8.1,14.9c-7.1-0.5-14-2-21.1-2.3
		c-7.7-0.3-15.3-0.3-23,0c-7.3,0.2-14.4,1.8-21.6,2.3C105.5,158.4,115.9,138.5,127.2,119.1z"/>
</g>
<g id="_x23_018fd5ff">
	<path class="st1" d="M93.2,4.4c24.2-6.4,50.4-5.3,74,3.3c25.7,8.7,47.8,26.9,62.7,49.4c12.1,18.5,19,40.4,20.1,62.5v12.9
		c-1.6,19.8-6.8,39.5-17.5,56.4c-31.4-55-62.9-110.1-94.2-165.1c-2.3-4.1-4.4-8.4-7.4-11.9c-0.7,17.4-0.1,34.8-0.3,52.2
		c0.2,5.7-1.1,11.9,2.1,17c18.2,33.1,36.5,66.1,54.8,99.2c1.6,2.7,2.7,6.2,5.9,7.4c9.9,4.5,20,8.9,28.9,15.4
		c-5.8,8.5-13.8,15.2-21.6,21.7c-10.6,8.1-22.7,14.2-35.2,18.7c-9.7,3.5-19.9,5-30.1,6.6h-15.8c-16.8-0.7-33.4-4.8-48.5-12.2
		c-14.4-6.5-27-16.6-37.9-28c-1.6-1.6-3-3.4-4.1-5.4c6.7-4.7,13.9-8.5,21.3-12c3.8-1.9,8-3,11.5-5.5c2.6-2.9,4-6.7,5.9-10.1
		c17.9-32.1,35.6-64.4,53.5-96.5c1.9-3.1,1.4-6.9,1.5-10.3c-0.2-19.7,0.2-39.4-0.2-59.1C90.6,66.8,58.5,122.7,26.5,178.5
		c-2.5,4.2-4.6,8.5-7.4,12.5C7.8,173.2,1.8,152.4,0,131.4v-11.9c1-12.4,3-24.7,7.3-36.4C20.6,44.9,54,14.4,93.2,4.4 M127.2,119.1
		c-11.3,19.4-21.7,39.3-32.9,58.8c7.2-0.5,14.4-2.1,21.6-2.3c7.7-0.3,15.3-0.3,23,0c7.1,0.3,14.1,1.8,21.1,2.3
		c-2.3-5.2-5.5-9.9-8.1-14.9C143.7,148.4,135.7,133.6,127.2,119.1z"/>
</g>
</svg>
